source/img/svg/mail-icon.svg

<svg width="18" height="13" viewBox="0 0 18 13" fill="none" xmlns="http://www.w3.org/2000/svg">
<path d="M14.9101 1.68071C16.1101 0.752143 15.8201 0 14.2601 0H3.73007C2.17007 0 1.88007 0.761428 3.07007 1.68071L6.82007 4.57786C7.44102 5.02891 8.2067 5.27397 8.99507 5.27397C9.78344 5.27397 10.5491 5.02891 11.1701 4.57786L14.9101 1.68071Z" fill="#D22856"/>
<path d="M11.9101 6.5L9.70007 8.24571C9.61906 8.29331 9.53164 8.33078 9.44007 8.35714L9.34007 8.40357C9.23142 8.44582 9.11701 8.47395 9.00007 8.48714L8.67007 8.43143L8.55007 8.35714C8.46475 8.3229 8.38417 8.27925 8.31007 8.22714L6.08007 6.5L2.18007 3.52857C1.00007 2.6 7.0672e-05 3.02714 7.0672e-05 4.47571V10.335C-0.002565 10.6825 0.0685454 11.0272 0.209341 11.3492C0.350138 11.6712 0.557862 11.9643 0.820654 12.2118C1.08345 12.4592 1.39616 12.6562 1.74093 12.7915C2.08571 12.9267 2.4558 12.9976 2.83007 13H15.1501C15.526 13 15.8983 12.9309 16.2454 12.7968C16.5924 12.6626 16.9075 12.466 17.1724 12.2183C17.4373 11.9706 17.6469 11.6767 17.7889 11.3534C17.9309 11.0302 18.0027 10.6841 18.0001 10.335V4.47571C18.0001 3.02714 17.0001 2.61857 15.8201 3.54714L11.9101 6.5Z" fill="#D22856"/>
</svg>

<svg width="18" height="13" fill="none" xmlns="http://www.w3.org/2000/svg"><path d="M14.91 1.68c1.2-.928.91-1.68-.65-1.68H3.73c-1.56 0-1.85.761-.66 1.68l3.75 2.898c.621.45 1.387.696 2.175.696.788 0 1.554-.245 2.175-.696l3.74-2.897Z" fill="#D22856"/><path d="M11.91 6.5 9.7 8.246a1.13 1.13 0 0 1-.26.111l-.1.047c-.109.042-.223.07-.34.083l-.33-.056-.12-.074a1.183 1.183 0 0 1-.24-.13L6.08 6.5l-3.9-2.971C1 2.6 0 3.027 0 4.476v5.859c-.003.347.069.692.21 1.014.14.322.348.615.61.863.263.247.576.444.92.58A3.04 3.04 0 0 0 2.83 13h12.32c.376 0 .748-.07 1.095-.203.347-.134.662-.331.927-.579.265-.247.475-.541.617-.865.142-.323.214-.669.211-1.018v-5.86c0-1.448-1-1.856-2.18-.928L11.91 6.5Z" fill="#D22856"/></svg>
